X:4435
L:1/8
M:4/4
K:C
[M:3/4][K:Amin] a gae f e f aeae e!fermata!ea f Mue =c ueacua[Q:1/8=80]"^andante"AB | c2 dc Bc | 
 A4 ab/c'/ | ag fe dc | d2 G2 AB |"^5" c2 BA Bc | d2 G2 AB | c2 BA Bc | A4 :| e^g |"^9" a2 a^g eg | 
 a2 a2 de | ga ge de | g2 g2 c>d |"^13" e2 fe dc | d2 ed cB | c2 dc Bc | A6 |]

